X:58
T:Ironbridge Hornpipe, The
R:Hornpipe
S:John Moore's Book 2
Z:Transcribed by Edmund Spriggs 04/2021
%%VWML: Moore1-4494-p44-0
F:http://www.vwml.org/record/Moore2/4494/p44
M:C
L:1/8
K:Bb
B2B2FBdB|cBcd edcB|ABcd cBAG|F2fg fedc|
((3BdB) FE DFBd|((3cec) GB ABcA|Bbag fedc|B2b2B2:|
|:cfag fgfe|dfbag2gf|efgf edcB|((3cdc) ((3BAG) F2fe|
dfdB FBdf|gagf edcB|((3ABc) ((3BAG)F2 GA|B2b2B2:|

